scalable/apps/anydo-cal.svg

<?xml version="1.0" encoding="UTF-8" standalone="no"?>
<!-- Created with Inkscape (http://www.inkscape.org/) -->

<svg
   xmlns:dc="http://purl.org/dc/elements/1.1/"
   xmlns:cc="http://creativecommons.org/ns#"
   xmlns:rdf="http://www.w3.org/1999/02/22-rdf-syntax-ns#"
   xmlns:svg="http://www.w3.org/2000/svg"
   xmlns="http://www.w3.org/2000/svg"
   xmlns:inkscape="http://www.inkscape.org/namespaces/inkscape"
   version="1.1"
   width="100%"
   height="100%"
   viewBox="0 0 512 512"
   id="svg2">
  <metadata
     id="metadata70">
    <rdf:RDF>
      <cc:Work
         rdf:about="">
        <dc:format>image/svg+xml</dc:format>
        <dc:type
           rdf:resource="http://purl.org/dc/dcmitype/StillImage" />
        <dc:title />
      </cc:Work>
    </rdf:RDF>
  </metadata>
  <defs
     id="defs68" />
  <path
     d="m 471.9456,253.05189 c 0,120.89699 -98.00565,218.90724 -218.90724,218.90724 -120.89698,0 -218.90723,-98.00566 -218.90723,-218.90724 0,-120.89698 98.00565,-218.907232 218.90723,-218.907232 120.89699,0 218.90724,98.005652 218.90724,218.907232"
     inkscape:connector-curvature="0"
     id="path8"
     style="fill:#db1623;fill-opacity:1;fill-rule:evenodd" />
  <path
     d="M 256,1 C 115.17,1 1,115.17 1,256 1,396.83 115.17,511 256,511 396.83,511 511,396.83 511,256 511,115.17 396.83,1 256,1 m 8.827,44.931 c 120.9,0 218.9,98 218.9,218.9 0,120.9 -98,218.9 -218.9,218.9 -120.9,0 -218.93,-98 -218.93,-218.9 0,-120.9 98.03,-218.9 218.93,-218.9"
     inkscape:connector-curvature="0"
     id="path10"
     style="fill-opacity:0.06700003;fill-rule:evenodd" />
  <path
     d="M 256,4.43 C 117.06,4.43 4.43,117.06 4.43,256 4.43,394.94 117.06,507.57 256,507.57 394.94,507.57 507.57,394.94 507.57,256 507.57,117.06 394.94,4.43 256,4.43 m 5.885,38.556 c 120.9,0 218.9,98 218.9,218.9 0,120.9 -98,218.9 -218.9,218.9 -120.9,0 -218.93,-98 -218.93,-218.9 0,-120.9 98.03,-218.9 218.93,-218.9"
     inkscape:connector-curvature="0"
     id="path14"
     style="fill-opacity:0.12900002;fill-rule:evenodd" />
  <path
     d="M 256,8.36 C 119.23,8.36 8.36,119.23 8.36,256 8.36,392.77 119.23,503.64 256,503.64 392.77,503.64 503.64,392.77 503.64,256 503.64,119.23 392.77,8.36 256,8.36 m 2.942,31.691 c 120.9,0 218.9,98 218.9,218.9 0,120.9 -98,218.9 -218.9,218.9 -120.9,0 -218.93,-98 -218.93,-218.9 0,-120.9 98.03,-218.9 218.93,-218.9"
     inkscape:connector-curvature="0"
     id="path16"
     style="fill-opacity:0.12900002;fill-rule:evenodd" />
  <path
     d="M 253.04,7.86 C 117.62,7.86 7.85,117.64 7.85,253.05 c 0,135.42 109.78,245.19 245.19,245.19 135.42,0 245.19,-109.78 245.19,-245.19 C 498.23,117.63 388.45,7.86 253.04,7.86 z m 0,26.297 c 120.9,0 218.9,98 218.9,218.9 0,120.9 -98,218.9 -218.9,218.9 -120.9,0 -218.93,-98 -218.93,-218.9 0,-120.9 98.03,-218.9 218.93,-218.9 z"
     inkscape:connector-curvature="0"
     id="path18"
     style="fill:#ffffff;fill-rule:evenodd;stroke:#000000;stroke-width:4.90399981;stroke-opacity:0.31000001" />
  <text
     x="729.64001"
     y="231.35997"
     id="text20"
     style="font-size:129.22999573px;line-height:125%;letter-spacing:0;word-spacing:0;font-family:Gentium Book Basic">
    <tspan
       x="729.64001"
       y="231.35997"
       id="tspan22" />
  </text>
  <text
     x="378.90805"
     y="579.25812"
     transform="scale(4.0128205,0.24920128)"
     id="text24"
     style="font-size:46.95375824px;text-anchor:middle;font-family:Arial" />
  <text
     x="1310.91"
     y="151.35997"
     id="text26"
     style="font-size:129.22999573px;line-height:125%;letter-spacing:0;word-spacing:0;font-family:Gentium Book Basic">
    <tspan
       x="1310.91"
       y="151.35997"
       id="tspan28" />
  </text>
  <text
     x="523.75732"
     y="258.21997"
     transform="scale(4.0128205,0.24920128)"
     id="text30"
     style="font-size:46.95375824px;text-anchor:middle;font-family:Arial" />
  <text
     x="239.33"
     y="-29.900009"
     id="text32"
     style="font-size:129.22999573px;line-height:125%;letter-spacing:0;word-spacing:0;font-family:Gentium Book Basic">
    <tspan
       x="239.33"
       y="-29.900009"
       id="tspan34" />
  </text>
  <text
     x="256.71869"
     y="-469.1264"
     transform="scale(4.0128205,0.24920128)"
     id="text36"
     style="font-size:46.95375824px;text-anchor:middle;font-family:Arial" />
  <text
     x="1337.38"
     y="-246.37001"
     id="text38"
     style="font-size:129.22999573px;line-height:125%;letter-spacing:0;word-spacing:0;font-family:Gentium Book Basic">
    <tspan
       x="1337.38"
       y="-246.37001"
       id="tspan40" />
  </text>
  <text
     x="530.3573"
     y="-1337.802"
     transform="scale(4.0128205,0.24920128)"
     id="text42"
     style="font-size:46.95375824px;text-anchor:middle;font-family:Arial" />
  <text
     x="1918.65"
     y="-326.37"
     id="text44"
     style="font-size:129.22999573px;line-height:125%;letter-spacing:0;word-spacing:0;font-family:Gentium Book Basic">
    <tspan
       x="1918.65"
       y="-326.37"
       id="tspan46" />
  </text>
  <text
     x="675.20654"
     y="-1658.8303"
     transform="scale(4.0128205,0.24920128)"
     id="text48"
     style="font-size:46.95375824px;text-anchor:middle;font-family:Arial" />
  <text
     x="1529.53"
     y="-798.77002"
     id="text50"
     style="font-size:129.22999573px;line-height:125%;letter-spacing:0;word-spacing:0;font-family:Gentium Book Basic">
    <tspan
       x="1529.53"
       y="-798.77002"
       id="tspan52" />
  </text>
  <text
     x="578.237"
     y="-3554.4807"
     transform="scale(4.0128205,0.24920128)"
     id="text54"
     style="font-size:46.95375824px;text-anchor:middle;font-family:Arial" />
  <text
     x="2110.79"
     y="-878.78003"
     id="text56"
     style="font-size:129.22999573px;line-height:125%;letter-spacing:0;word-spacing:0;font-family:Gentium Book Basic">
    <tspan
       x="2110.79"
       y="-878.78003"
       id="tspan58" />
  </text>
  <text
     x="723.0863"
     y="-3875.519"
     transform="scale(4.0128205,0.24920128)"
     id="text60"
     style="font-size:46.95375824px;text-anchor:middle;font-family:Arial" />
  <text
     x="277.98999"
     y="535.94006"
     id="text62"
     style="font-size:208.33000183px;line-height:125%;letter-spacing:0;word-spacing:0;font-family:Gentium Book Basic">
    <tspan
       x="277.98999"
       y="535.94006"
       id="tspan64" />
  </text>
  <g
     transform="translate(-807.73832,-1265.3463)"
     id="layer1" />
  <g
     transform="matrix(1.1,0,0,0.44444,-712.65726,-468.59156)"
     id="g2036">
    <g
       transform="matrix(1.0526,0,0,1.2857,-1.2632,-13.429)"
       id="g3712"
       style="opacity:0.4" />
  </g>
  <g
     transform="translate(-710.25726,-493.70256)"
     id="g3541" />
  <g
     transform="translate(-710.25726,-493.70256)"
     id="g3536" />
  <g
     transform="translate(-1413.2576,-1078.9524)"
     id="g4076">
    <g
       transform="translate(-926.66758,684.38448)"
       id="g4038" />
  </g>
  <path
     d="m 116.03125,220.25 0,169.59375 73.53125,72.75 c 20.09358,6.07918 41.39123,9.375 63.46875,9.375 77.15482,0 144.98314,-39.94448 183.96875,-100.25 L 285.59375,220.25 l -169.5625,0 z m 21.28125,49.28125 126.96875,0 0,0.0312 -126.9375,0 0,98.96875 -0.0312,0 0,-99 z"
     inkscape:connector-curvature="0"
     id="path8557"
     style="color:#000000;fill:#000000;fill-opacity:0.23529412;fill-rule:nonzero;stroke:none;stroke-width:3;marker:none;visibility:visible;display:inline;overflow:visible;enable-background:accumulate" />
  <path
     d="m 116.01294,220.25455 0,169.58899 169.58898,0 0,-169.58899 -169.58898,0 z m 21.31976,49.30195 126.94946,0 0,98.96728 -126.94946,0 0,-98.96728 z"
     inkscape:connector-curvature="0"
     id="rect8448"
     style="color:#000000;fill:#ffffff;fill-opacity:1;fill-rule:nonzero;stroke:none;stroke-width:3;marker:none;visibility:visible;display:inline;overflow:visible;enable-background:accumulate" />
</svg>

<?xml version="1.0" encoding="UTF-8" standalone="no"?>
<!-- Created with Inkscape (http://www.inkscape.org/) -->
<svg id="svg2" xmlns:rdf="http://www.w3.org/1999/02/22-rdf-syntax-ns#" xmlns="http://www.w3.org/2000/svg" height="100%" viewBox="0 0 512 512" width="100%" version="1.1" xmlns:cc="http://creativecommons.org/ns#" xmlns:dc="http://purl.org/dc/elements/1.1/">
 <metadata id="metadata70">
  <rdf:RDF>
   <cc:Work rdf:about="">
    <dc:format>image/svg+xml</dc:format>
    <dc:type rdf:resource="http://purl.org/dc/dcmitype/StillImage"/>
    <dc:title/>
   </cc:Work>
  </rdf:RDF>
 </metadata>
 <path id="path8" fill-rule="evenodd" fill="#db1623" d="m471.95 253.05c0 120.9-98.006 218.91-218.91 218.91s-218.91-98.006-218.91-218.91 98.006-218.91 218.91-218.91 218.91 98.006 218.91 218.91"/>
 <path id="path10" d="m256 1c-140.83 0-255 114.17-255 255s114.17 255 255 255 255-114.17 255-255-114.17-255-255-255m8.827 44.931c120.9 0 218.9 98 218.9 218.9s-98 218.9-218.9 218.9-218.93-98-218.93-218.9 98.03-218.9 218.93-218.9" fill-rule="evenodd" fill-opacity=".067"/>
 <path id="path14" d="m256 4.43c-138.94 0-251.57 112.63-251.57 251.57s112.63 251.57 251.57 251.57 251.57-112.63 251.57-251.57-112.63-251.57-251.57-251.57m5.885 38.556c120.9 0 218.9 98 218.9 218.9s-98 218.9-218.9 218.9-218.93-98-218.93-218.9 98.03-218.9 218.93-218.9" fill-rule="evenodd" fill-opacity=".129"/>
 <path id="path16" d="m256 8.36c-136.77 0-247.64 110.87-247.64 247.64s110.87 247.64 247.64 247.64 247.64-110.87 247.64-247.64-110.87-247.64-247.64-247.64m2.942 31.691c120.9 0 218.9 98 218.9 218.9s-98 218.9-218.9 218.9-218.93-98-218.93-218.9 98.03-218.9 218.93-218.9" fill-rule="evenodd" fill-opacity=".129"/>
 <path id="path18" d="m253.04 7.86c-135.42 0-245.19 109.78-245.19 245.19 0 135.42 109.78 245.19 245.19 245.19 135.42 0 245.19-109.78 245.19-245.19 0-135.42-109.78-245.19-245.19-245.19zm0 26.297c120.9 0 218.9 98 218.9 218.9s-98 218.9-218.9 218.9-218.93-98-218.93-218.9 98.03-218.9 218.93-218.9z" stroke-opacity=".31" fill-rule="evenodd" stroke="#000" stroke-width="4.904" fill="#fff"/>
 <text id="text20" style="word-spacing:0;letter-spacing:0" font-size="129.23px" line-height="125%" y="231.35997" x="729.64001" font-family="Gentium Book Basic">
  <tspan id="tspan22" y="231.35997" x="729.64001"/>
 </text>
 <text id="text24" style="text-anchor:middle" font-size="46.954px" transform="scale(4.0128 .24920)" y="579.25812" x="378.90805" font-family="Arial"/>
 <text id="text26" style="word-spacing:0;letter-spacing:0" font-size="129.23px" line-height="125%" y="151.35997" x="1310.91" font-family="Gentium Book Basic">
  <tspan id="tspan28" y="151.35997" x="1310.91"/>
 </text>
 <text id="text30" style="text-anchor:middle" font-size="46.954px" transform="scale(4.0128 .24920)" y="258.21997" x="523.75732" font-family="Arial"/>
 <text id="text32" style="word-spacing:0;letter-spacing:0" font-size="129.23px" line-height="125%" y="-29.900009" x="239.33" font-family="Gentium Book Basic">
  <tspan id="tspan34" y="-29.900009" x="239.33"/>
 </text>
 <text id="text36" style="text-anchor:middle" font-size="46.954px" transform="scale(4.0128 .24920)" y="-469.1264" x="256.71869" font-family="Arial"/>
 <text id="text38" style="word-spacing:0;letter-spacing:0" font-size="129.23px" line-height="125%" y="-246.37001" x="1337.38" font-family="Gentium Book Basic">
  <tspan id="tspan40" y="-246.37001" x="1337.38"/>
 </text>
 <text id="text42" style="text-anchor:middle" font-size="46.954px" transform="scale(4.0128 .24920)" y="-1337.802" x="530.3573" font-family="Arial"/>
 <text id="text44" style="word-spacing:0;letter-spacing:0" font-size="129.23px" line-height="125%" y="-326.37" x="1918.65" font-family="Gentium Book Basic">
  <tspan id="tspan46" y="-326.37" x="1918.65"/>
 </text>
 <text id="text48" style="text-anchor:middle" font-size="46.954px" transform="scale(4.0128 .24920)" y="-1658.8303" x="675.20654" font-family="Arial"/>
 <text id="text50" style="word-spacing:0;letter-spacing:0" font-size="129.23px" line-height="125%" y="-798.77002" x="1529.53" font-family="Gentium Book Basic">
  <tspan id="tspan52" y="-798.77002" x="1529.53"/>
 </text>
 <text id="text54" style="text-anchor:middle" font-size="46.954px" transform="scale(4.0128 .24920)" y="-3554.4807" x="578.237" font-family="Arial"/>
 <text id="text56" style="word-spacing:0;letter-spacing:0" font-size="129.23px" line-height="125%" y="-878.78003" x="2110.79" font-family="Gentium Book Basic">
  <tspan id="tspan58" y="-878.78003" x="2110.79"/>
 </text>
 <text id="text60" style="text-anchor:middle" font-size="46.954px" transform="scale(4.0128 .24920)" y="-3875.519" x="723.0863" font-family="Arial"/>
 <text id="text62" style="word-spacing:0;letter-spacing:0" font-size="208.33px" line-height="125%" y="535.94006" x="277.98999" font-family="Gentium Book Basic">
  <tspan id="tspan64" y="535.94006" x="277.98999"/>
 </text>
 <path id="path8557" style="color:#000000" fill-opacity=".23529" d="m116.03 220.25v169.59l73.531 72.75c20.094 6.0792 41.391 9.375 63.469 9.375 77.155 0 144.98-39.944 183.97-100.25l-151.41-151.47h-169.56zm21.281 49.281h126.97v0.0312h-126.94v98.969h-0.0312v-99z"/>
 <path id="rect8448" style="color:#000000" fill="#fff" d="m116.01 220.25v169.59h169.59v-169.59h-169.59zm21.32 49.302h126.95v98.967h-126.95v-98.967z"/>
</svg>
